z_dist/img/icons/crypto/bitcoin-cash-BCH.svg

<svg width="64" height="64" viewBox="0 0 64 64" fill="none" xmlns="http://www.w3.org/2000/svg">
<g clip-path="url(#clip0_233_476)">
<rect width="64" height="64" rx="4" fill="#0AC18E"/>
<path d="M41.9817 21.2549C40.3736 17.6082 36.6781 16.8285 32.1543 17.5838L30.7005 11.9473L27.2731 12.8325L28.7025 18.4528C27.801 18.6803 26.8751 18.8752 25.9573 19.1351L24.5279 13.5473L21.1005 14.4325L22.5543 20.0691C21.8152 20.2803 15.6345 21.864 15.6345 21.864L16.5767 25.5351C16.5767 25.5351 19.0944 24.8285 19.07 24.8853C20.467 24.5199 21.1249 25.2183 21.4335 25.8762L25.4294 41.3239C25.4782 41.7706 25.3969 42.5341 24.4386 42.794C24.4954 42.8265 21.9452 43.4356 21.9452 43.4356L22.3188 47.7158C22.3188 47.7158 28.4426 46.1483 29.2467 45.9452L30.7167 51.6468L34.1441 50.7615L32.6741 45.0193C33.6162 44.8001 34.534 44.5726 35.4274 44.3371L36.8893 50.0468L40.3167 49.1615L38.8467 43.4681C44.1258 42.1848 47.8537 38.8549 47.0903 33.7625C46.603 30.6924 43.2487 28.1747 40.4629 27.8904C42.1766 26.3716 43.0456 24.1544 41.9817 21.2549ZM40.333 34.6965C41.0152 39.7402 34.0061 40.3574 31.6913 40.9666L29.6771 33.4214C32 32.8122 39.1797 30.2539 40.333 34.6965ZM36.1096 24.4224C36.8325 28.9056 30.8386 29.4254 28.9056 29.9209L27.07 23.0742C29.0111 22.595 34.6396 20.2721 36.1096 24.4224Z" fill="white"/>
</g>
<defs>
<clipPath id="clip0_233_476">
<rect width="64" height="64" fill="white"/>
</clipPath>
</defs>
</svg>

<svg width="64" height="64" fill="none" xmlns="http://www.w3.org/2000/svg"><g clip-path="url(#clip0_233_476)"><rect width="64" height="64" rx="4" fill="#0AC18E"/><path d="M41.982 21.255c-1.608-3.647-5.304-4.427-9.828-3.671L30.7 11.947l-3.427.886 1.43 5.62c-.902.227-1.828.422-2.746.682l-1.43-5.588-3.427.885 1.454 5.637c-.739.211-6.92 1.795-6.92 1.795l.943 3.671s2.517-.707 2.493-.65c1.397-.365 2.055.333 2.363.991l3.996 15.448c.05.447-.032 1.21-.99 1.47.056.033-2.494.642-2.494.642l.374 4.28s6.124-1.568 6.928-1.77l1.47 5.7 3.427-.885-1.47-5.742a97.4 97.4 0 002.753-.682l1.462 5.71 3.428-.886-1.47-5.693c5.279-1.283 9.007-4.613 8.243-9.706-.487-3.07-3.841-5.587-6.627-5.872 1.714-1.518 2.583-3.736 1.519-6.635zm-1.649 13.442c.682 5.043-6.327 5.66-8.642 6.27l-2.014-7.546c2.323-.609 9.503-3.167 10.656 1.276zM36.11 24.422c.723 4.484-5.271 5.003-7.204 5.499l-1.836-6.847c1.941-.479 7.57-2.802 9.04 1.348z" fill="#fff"/></g><defs><clipPath id="clip0_233_476"><path fill="#fff" d="M0 0h64v64H0z"/></clipPath></defs></svg>
